vendor/shopware/storefront/Resources/app/storefront/dist/assets/icon/default/pencil-brush.svg

<svg xmlns="http://www.w3.org/2000/svg" width="24" height="24" viewBox="0 0 24 24">
  <path fill="#758CA3" fill-rule="evenodd" d="M6.50319895,12.0825875 C4.47620091,9.46966129 2.95623259,6.48258925 2.03969884,3.27472113 C1.82416973,2.52036925 2.52159203,1.82294694 3.27594392,2.03847605 C6.48381203,2.9550098 9.47088408,4.47497812 12.0838103,6.50197616 L17.2928932,1.29289322 C17.6834175,0.902368927 18.3165825,0.902368927 18.7071068,1.29289322 L22.7071068,5.29289322 C23.0976311,5.68341751 23.0976311,6.31658249 22.7071068,6.70710678 L17.4921358,11.9220778 L18.6679976,13.2449223 C20.752431,14.6883212 22.0000169,17.0643547 22.0000169,19.6055513 L22.0000169,21 C22.0000169,21.5522847 21.5523016,22 21.0000169,22 L19.6055681,22 C17.0619687,22 14.6838448,20.7500536 13.2408472,18.6620655 L11.9233006,17.490913 L7.70710678,21.7071068 C7.5195704,21.8946432 7.26521649,22 7,22 L3,22 C2.44771525,22 2,21.5522847 2,21 L2,17 C2,16.7347835 2.10535684,16.4804296 2.29289322,16.2928932 L6.50319895,12.0825875 Z M7.7939853,13.6202283 L4,17.4142136 L4,20 L6.58578644,20 L10.425898,16.1598885 L9.77808092,15.5840511 C9.07990481,14.9634501 8.41783421,14.3077204 7.7939853,13.6202283 Z M13.9602122,16.6255912 L16.6268139,13.9589894 L14.0904552,11.1055858 C11.4890891,8.17904894 8.21915646,5.93967001 4.57153492,4.57031213 C5.94089279,8.21793368 8.18027172,11.4878663 11.1068086,14.0892324 L13.9602122,16.6255912 Z M13.621451,7.79276251 C14.3089432,8.41661143 14.9646729,9.07868202 15.5852739,9.77685813 L16.1611112,10.4246752 L18.0857864,8.5 L15.5,5.91421356 L13.621451,7.79276251 Z M16.9142136,4.5 L19.5,7.08578644 L20.5857864,6 L18,3.41421356 L16.9142136,4.5 Z M20.0000169,19.6055513 C20.0000169,17.9599503 19.2944632,16.4077549 18.0862166,15.3280138 L15.3280307,18.0861997 C16.4077717,19.2944463 17.9599672,20 19.6055681,20 L20.0000169,20 L20.0000169,19.6055513 Z"/>
</svg>

<svg xmlns="http://www.w3.org/2000/svg" width="24" height="24" viewBox="0 0 24 24"><path fill="#758CA3" fill-rule="evenodd" d="M6.5032 12.0826a26.041 26.041 0 0 1-4.4635-8.8079c-.2155-.7543.4819-1.4518 1.2362-1.2362a26.041 26.041 0 0 1 8.808 4.4635l5.209-5.2091c.3905-.3905 1.0237-.3905 1.4142 0l4 4c.3905.3905.3905 1.0237 0 1.4142l-5.215 5.215 1.1759 1.3228A7.737 7.737 0 0 1 22 19.6056V21c0 .5523-.4477 1-1 1h-1.3944a7.737 7.737 0 0 1-6.3648-3.338l-1.3175-1.171-4.2162 4.2161A1 1 0 0 1 7 22H3c-.5523 0-1-.4477-1-1v-4a1 1 0 0 1 .2929-.7071l4.2103-4.2103zm1.2908 1.5376L4 17.4142V20h2.5858l3.8401-3.8401-.6478-.5758a26.0408 26.0408 0 0 1-1.9841-1.9639zm6.1662 3.0054 2.6666-2.6666-2.5363-2.8534a24.0413 24.0413 0 0 0-9.519-6.5353 24.0413 24.0413 0 0 0 6.5353 9.519l2.8534 2.5363zm-.3387-8.8328a26.0408 26.0408 0 0 1 1.9638 1.984l.5758.6479L18.0858 8.5 15.5 5.9142l-1.8785 1.8786zM16.9142 4.5 19.5 7.0858 20.5858 6 18 3.4142 16.9142 4.5zM20 19.6056a5.7373 5.7373 0 0 0-1.9138-4.2776l-2.7582 2.7582A5.7373 5.7373 0 0 0 19.6056 20H20v-.3944z"/></svg>
